!!!!SEGMENT: pl-wtm--a-29-276-75_joteyko-tadeusz--noc-taka-jasna-op-3-no-1.krn
!!!cenid: 19xx:125
!!!COM: Joteyko, Tadeusz
!!!COM-rismID: pe50046072
!!!CDT: 1872-1932
!!!CNT: Polish
!!!OTL: Noc taka jasna Op. 3 No. 1
!!!PDT:
!!!AGN: Secular; Song
!!!YEC: Copyright 2022 Narodowy Instytut Fryderyka Chopina (https://polishscores.org)
!!!YEM: License CC-BY-4.0 (https://creativecommons.org/licenses/by/4.0)
!!!SMS-siglum: PL-Wtm
!!!SMS-shelfmark: A.29.276/75
!!!SMS-variant:
!!!SMS-altvar:
!!!SMS-shelfwork: W
!!!NIFC-rismSourceID: 1001208573
!!!NIFC-rismChildID: 1001208573
!!!NIFC-islandoraID: pl-wtm:34293
!!!URL-pdf-islandora: https://repozytorium.nifc.pl/islandora/object/pl-wtm%3A34293/datastream/PDF/view
!!!URL-scan: https://polish.musicsources.pl/pl/lokalizacje/galeria/druki-muzyczne/20546/2 @EN{Scan on Polish Music Sources Website} @PL{Skany w portalu Dziedzictwo Muzyki Polskiej w otwartym dostępie}
!!!IIIF:
!!!ONB-nifc:
!!!OMD: Andantino.
!!!AIN: 1 piano 2 vox
!!!key: F
**kern	**kern	**dynam	**kern	**text	**dynam	**kern	**text	**dynam
*part3	*part3	*part3	*part2	*part2	*part2	*part1	*part1	*part1
*staff4	*staff3	*	*staff2	*staff2	*	*staff1	*staff1	*
*ICklav	*ICklav	*	*ICvox	*	*	*ICvox	*	*
*Ipiano	*Ipiano	*	*Ivox	*	*	*Ivox	*	*
*I"Fortepian	*I"Fortepian	*	*I"2. Głos.	*	*	*I"1. Głos.	*	*
*clefF4	*clefG2	*	*clefG2	*	*	*clefG2	*	*
*k[b-]	*k[b-]	*	*k[b-]	*	*	*k[b-]	*	*
*F:	*F:	*	*F:	*	*	*F:	*	*
*M6/8	*M6/8	*	*M6/8	*	*	*M6/8	*	*
=1	=1	=1	=1	=1	=1	=1	=1	=1
*	*^	*	*	*	*	*	*	*
!	!LO:TX:a:B:t=Andantino.	!	!	!	!	!	!	!	!
(8FF/L	4cc/	16r	p	2.r	.	.	2.r	.	.
.	.	(16a\LL	.	.	.	.	.	.	.
8C/	.	16f\	.	.	.	.	.	.	.
.	.	16a\	.	.	.	.	.	.	.
8F/J)	8cc/	16cc\	.	.	.	.	.	.	.
.	.	16a\JJ)	.	.	.	.	.	.	.
(8FF/L	(8cc/L	16r	.	.	.	.	.	.	.
.	.	16f\LL 16a	.	.	.	.	.	.	.
8C/	8ee/	16r	.	.	.	.	.	.	.
.	.	16f\ 16a	.	.	.	.	.	.	.
8F/J)	8dd/J)	16r	.	.	.	.	.	.	.
.	.	16f\JJ 16a	.	.	.	.	.	.	.
=2	=2	=2	=2	=2	=2	=2	=2	=2	=2
(8FF/L	4cc/	16r	.	2.r	.	.	2.r	.	.
.	.	(16b-\LL	.	.	.	.	.	.	.
8C/	.	16g\	.	.	.	.	.	.	.
.	.	16b-\	.	.	.	.	.	.	.
8E/J)	8cc/	16cc\	.	.	.	.	.	.	.
.	.	16b-\JJ)	.	.	.	.	.	.	.
(8FF/L	(8cc/L	16r	.	.	.	.	.	.	.
.	.	16g\LL 16b-	.	.	.	.	.	.	.
8C/	8ee/	16r	.	.	.	.	.	.	.
.	.	16g\ 16b-	.	.	.	.	.	.	.
8E/J)	8dd/J)	16r	.	.	.	.	.	.	.
.	.	16g\JJ 16b-	.	.	.	.	.	.	.
=3	=3	=3	=3	=3	=3	=3	=3	=3	=3
!	!	!	!LO:HP:a	!	!	!	!	!	!
(8FF/L	4cc/	16r	<	2.r	.	.	2.r	.	.
.	.	(16a\LL	.	.	.	.	.	.	.
8C/	.	16f\	.	.	.	.	.	.	.
.	.	16a\	.	.	.	.	.	.	.
8F/J)	8cc/	16cc\	.	.	.	.	.	.	.
.	.	16a\JJ)	.	.	.	.	.	.	.
(8FF/L	(8cc/L	16r	[	.	.	.	.	.	.
.	.	16f\LL 16a	.	.	.	.	.	.	.
8C/	8aa/	16r	.	.	.	.	.	.	.
.	.	16a\ 16cc	.	.	.	.	.	.	.
8A/J)	8ff/J)	16r	.	.	.	.	.	.	.
.	.	16a\JJ 16cc	.	.	.	.	.	.	.
=4	=4	=4	=4	=4	=4	=4	=4	=4	=4
(8GG/L	(4ee/	16r	.	2.r	.	.	2.r	.	.
.	.	(16b-\LL	.	.	.	.	.	.	.
8C/	.	16g\	.	.	.	.	.	.	.
.	.	16b-\	.	.	.	.	.	.	.
8E/J)	8dd/)	16dd\	.	.	.	.	.	.	.
.	.	16b-\JJ)	.	.	.	.	.	.	.
!	!	!	!LO:HP:a	!	!	!	!	!	!
(8CC/L	(4cc/	16r	>	.	.	.	.	.	.
.	.	16g\LL	.	.	.	.	.	.	.
8C/	.	16e\	.	.	.	.	.	.	.
.	.	16g\	.	.	.	.	.	.	.
8E/J)	8b-/)	16b-\	.	.	.	.	.	.	.
.	.	16g\JJ	]	.	.	.	.	.	.
!!LO:LB:g=original
=5	=5	=5	=5	=5	=5	=5	=5	=5	=5
*^	*	*	*	*	*	*	*	*	*
4.C/ 4.F	2.FF\	4a/	16r	.	2.r	.	.	2.r	.	.
.	.	.	(16f\LL	.	.	.	.	.	.	.
.	.	.	16c\	.	.	.	.	.	.	.
.	.	.	16f\	.	.	.	.	.	.	.
.	.	8a/	16a\	.	.	.	.	.	.	.
.	.	.	16f\JJ)	.	.	.	.	.	.	.
4.D-X\ 4.F	.	4a/	16r	.	.	.	.	.	.	.
.	.	.	(16f\LL	.	.	.	.	.	.	.
.	.	.	16d-X\	.	.	.	.	.	.	.
.	.	.	16f\	.	.	.	.	.	.	.
.	.	8a/	16a\	.	.	.	.	.	.	.
.	.	.	16f\JJ)	.	.	.	.	.	.	.
=6	=6	=6	=6	=6	=6	=6	=6	=6	=6	=6
4.C/ 4.F	2.FF\	4a/	16r	.	2.r	.	.	2.r	.	.
.	.	.	(16f\LL	.	.	.	.	.	.	.
.	.	.	16c\	.	.	.	.	.	.	.
.	.	.	16f\	.	.	.	.	.	.	.
.	.	8a/	16a\	.	.	.	.	.	.	.
.	.	.	16f\JJ)	.	.	.	.	.	.	.
4.D-X/ 4.F	.	4a/	16r	.	.	.	.	.	.	.
.	.	.	(16f\LL	.	.	.	.	.	.	.
.	.	.	16d-X\	.	.	.	.	.	.	.
.	.	.	16f\	.	.	.	.	.	.	.
.	.	8a/	16a\	.	.	.	.	.	.	.
.	.	.	16f\JJ)	.	.	.	.	.	.	.
*v	*v	*	*	*	*	*	*	*	*	*
=7	=7	=7	=7	=7	=7	=7	=7	=7	=7
!	!	!	!	!	!	!LO:DY:b:rj	!	!	!LO:DY:a:rj
4.FF/ 4.C 4.F	(8f/L 8a	16r	p	8f/	.	p	8a/	Noc	p
.	.	(16c\LL	.	.	.	.	.	.	.
.	8g/ 8b-	16r	.	8g/	.	.	8b-/	ta-	.
.	.	16c\	.	.	.	.	.	.	.
.	8b-/J) 8dd	16r	.	8b-/	.	.	8dd\	-ka	.
.	.	16e\JJ)	.	.	.	.	.	.	.
4.FF/ 4.C 4.F	4a/ 4cc	16r	.	4a/	.	.	4cc\	jas-	.
.	.	(16f\LL	.	.	.	.	.	.	.
.	.	16c\	.	.	.	.	.	.	.
.	.	16f\	.	.	.	.	.	.	.
.	8a/ 8cc	16a\	.	8a/	.	.	8cc\	-na,	.
.	.	16f\JJ)	.	.	.	.	.	.	.
=8	=8	=8	=8	=8	=8	=8	=8	=8	=8
4.FF/ 4.C 4.G	8e/L 8g	16r	.	8e/	.	.	8g/	gwiaz-	.
.	.	(16c\LL	.	.	.	.	.	.	.
.	8e/ 8g	16r	.	8e/	.	.	8g/	-da	.
.	.	16c\	.	.	.	.	.	.	.
.	8g/J 8b-	16r	.	8g/	.	.	8b-/	mi	.
.	.	16e\JJ)	.	.	.	.	.	.	.
4.FF:\ 4.C: 4.A:	4a/	16r	.	4f/	.	.	4a/	pło-	.
.	.	(16f\LL	.	.	.	.	.	.	.
.	.	16c\	.	.	.	.	.	.	.
.	.	16f\	.	.	.	.	.	.	.
.	8a/	16a\	.	8f/	.	.	8a/	-nie,	.
.	.	16f\JJ)	.	.	.	.	.	.	.
!!LO:LB:g=original
=9	=9	=9	=9	=9	=9	=9	=9	=9	=9
!	!	!	!LO:HP:a	!	!	!	!	!	!LO:HP:a
(8DD/L	4a/	(16f\LL	<	8f/	.	.	8dd\	świa-	<
.	.	16d\	.	.	.	.	.	.	.
8AA/	.	16g\	.	8g/	.	.	8ee\	-tłem	.
.	.	16e\	.	.	.	.	.	.	.
8D/J)	8a/	16a\	.	8a/	.	.	8ff\	o-	.
.	.	16f\JJ)	[	.	.	.	.	.	.
(8AA\L	(8a/L	(16e\LL	.	(8.cc/L	.	.	4ee\	-ka-	[
.	.	16c\	.	.	.	.	.	.	.
8E\	8bn/	16e\	.	.	.	.	.	.	.
.	.	16c\	.	16bn/Jk)	.	.	.	.	.
8A\J)	8cc/J)	16e\	.	8a/	.	.	8ee\	-la	.
.	.	16c\JJ)	.	.	.	.	.	.	.
=10	=10	=10	=10	=10	=10	=10	=10	=10	=10
(8EE/L	(8bn/L	(16e\LL	.	8g#X/	.	.	8dd\	przej-	.
.	.	16d\	.	.	.	.	.	.	.
8BBn/	8cc/	16e\	.	8e/	.	.	8dd\	-rzys-	.
.	.	16d\	.	.	.	.	.	.	.
8G#X/J)	8b/J)	16e\	.	8g#/	.	.	8dd\	-te	.
.	.	16d\JJ)	.	.	.	.	.	.	.
!	!	!	!LO:HP:a	!	!	!	!	!	!LO:HP:a
(8AA\L	4a/	16r	>	4a/	.	.	4cc\	to-	>
.	.	(16e\LL	.	.	.	.	.	.	.
8E\	.	16c\	.	.	.	.	.	.	.
.	.	16e\	.	.	.	.	.	.	.
8A\J)	8a/	16a\	.	8a/	.	.	8cc\	-nie,	]
.	.	16e\JJ)	]	.	.	.	.	.	.
=11	=11	=11	=11	=11	=11	=11	=11	=11	=11
(8CC/L	4b-X/	(16e\LL	p	8b-X\	.	.	8cc\	noc	.
.	.	16c\	.	.	.	.	.	.	.
8GG/	.	16e\	.	8b-\	.	.	8.ee^\	ta-	.
.	.	16c\	.	.	.	.	.	.	.
8C/J)	8b-/	16e\	.	8b-\	.	.	.	.	.
.	.	16c\JJ)	.	.	.	.	16dd\	-ka	.
(8FF/L	4a/	16r	.	4a/	.	.	4cc\	jas-	.
.	.	(16f\LL	.	.	.	.	.	.	.
8C/	.	16c\	.	.	.	.	.	.	.
.	.	16f\	.	.	.	.	.	.	.
8F/J)	8a/	16a\	.	8a/	.	.	8cc\	-na,	.
.	.	16f\JJ)	.	.	.	.	.	.	.
=12	=12	=12	=12	=12	=12	=12	=12	=12	=12
(8DD/L	8dd/L	16r	.	8f/	.	.	8a/	jas-	.
.	.	16f\LL 16a	.	.	.	.	.	.	.
8AA/	8ee/	16r	.	8e/	.	.	8a/	-na	.
.	.	16f\ 16a	.	.	.	.	.	.	.
8D/J)	8ff/J	16r	.	8d/	.	.	8a/	i	.
.	.	16f\JJ 16a	.	.	.	.	.	.	.
8EE\L 8E	4gg/	16r	.	4c/	.	.	4cc\	ci-	.
.	.	(16cc\LL	.	.	.	.	.	.	.
8E\ 8G 8c	.	16g\	.	.	.	.	.	.	.
.	.	16cc\	.	.	.	.	.	.	.
8E\J 8G 8c	8gg/	16gg\	.	8c/	.	.	8cc\	-cha,	.
.	.	16cc\JJ)	.	.	.	.	.	.	.
!!LO:PB:g=original
=13	=13	=13	=13	=13	=13	=13	=13	=13	=13
!	!	!	!	!	!	!	!	!	!LO:HP:a
8FF\L 8F	(8cc/L 8aa	16r	<	8c/	.	.	8a/	za-	<
.	.	16ff\LL	.	.	.	.	.	.	.
8F\ 8A 8d	8dd/ 8bbn	16r	.	8d/	.	.	8bn\	-led-	.
.	.	16ff\	.	.	.	.	.	.	.
8F\J 8A 8d	8ff/J) 8ccc	16r	.	8a/	.	.	8cc\	-wie	.
.	.	16aa\JJ	.	.	.	.	.	.	.
8GG\L 8G	(16eee\LL	4.ryy	[ f	4g/	.	.	4ee\	fa-	[
.	16ccc\	.	.	.	.	.	.	.	.
8G\ 8c 8e	16gg\	.	.	.	.	.	.	.	.
.	16ee\	.	.	.	.	.	.	.	.
8G\J 8c 8e	16cc\	.	.	8e/	.	.	8cc\	-la	.
.	16ee\JJ)	.	.	.	.	.	.	.	.
*	*v	*v	*	*	*	*	*	*	*
=14	=14	=14	=14	=14	=14	=14	=14	=14
8GG\L 8G	(16gg/LL	.	8f/	.	.	8dd\	szem-	.
.	16ff/	.	.	.	.	.	.	.
8G\ 8Bn 8d	16dd/	.	8g/	.	.	8.bn\	-rze	.
.	16bn/	.	.	.	.	.	.	.
8G\J 8B 8d	16g/	.	8f/	.	.	.	.	.
.	16f/JJ)	.	.	.	.	16g/	i	.
!	!	!	!	!	!	!	!	!LO:HP:a
8CC\L 8C	(16e/LL	.	4e/	.	.	4cc\	wzdy-	>
.	16f/	>	.	.	.	.	.	.
8G\ 8c 8e	16g/	.	.	.	.	.	.	.
.	16cc/	.	.	.	.	.	.	.
8G\J 8c 8e	16dd/	.	8e/	.	.	8cc\	-cha.	]
.	16ee/JJ)	]	.	.	.	.	.	.
=15	=15	=15	=15	=15	=15	=15	=15	=15
8CC\L 8C	(16gg\LL	p	8e/	.	.	8cc\	Łód-	.
.	16ff\	.	.	.	.	.	.	.
8G\ 8B-X 8c 8e	16ee\	.	8g/	.	.	8.ee^\	-ka	.
.	16dd\	.	.	.	.	.	.	.
8G\J 8B- 8c 8e	16cc\	.	8b-X\	.	.	.	.	.
.	16b-\JJ	.	.	.	.	16dd\	jak	.
(8FF\L	16a/LL	.	4a/	.	.	4cc\	pta-	.
.	16g/	.	.	.	.	.	.	.
8C\	16f/	.	.	.	.	.	.	.
.	16e/	.	.	.	.	.	.	.
8A\J)	16d/	.	8a/	.	.	8cc\	-szę	.
.	16c/JJ)	.	.	.	.	.	.	.
=16	=16	=16	=16	=16	=16	=16	=16	=16
*	*^	*	*	*	*	*	*	*
(8FF/L	(8a/L	(16f\LL	.	8f/	.	.	8a/	po	.
.	.	16e\	.	.	.	.	.	.	.
8AA/	8cc/	16f\	.	(16f/LL	.	.	8.cc\	wo-	.
.	.	16e\	.	16e/JJ)	.	.	.	.	.
8BB-/J)	8b-/J)	16f\	.	8d/	.	.	.	.	.
.	.	16d\JJ)	.	.	.	.	16b-\	-dzie	.
4.CC/ 4.C	4a/	16r	.	4c/	.	.	4a/	z lek-	.
.	.	(16f\LL	.	.	.	.	.	.	.
.	.	16c\	.	.	.	.	.	.	.
.	.	16f\	.	.	.	.	.	.	.
.	8a/	16a\	.	8c/	.	.	8a/	-ka	.
.	.	16f\JJ)	.	.	.	.	.	.	.
!!LO:LB:g=original
=17	=17	=17	=17	=17	=17	=17	=17	=17	=17
(8DD/L 8D	(8f/L	(16d\LL	.	8A/	.	.	8f/	wzla-	.
.	.	16A\	.	.	.	.	.	.	.
8CC/ 8C	8g/	16e\	.	8c/	.	.	8g/	-tu-	.
.	.	16c\	.	.	.	.	.	.	.
8AAA/J) 8AA	8a/J)	16e\	.	8c/	.	.	8a/	-je	.
.	.	16c\JJ)	.	.	.	.	.	.	.
!	!	!	!LO:HP:b	!	!	!	!	!	!LO:HP:a
4GGG/ 4GG	(4b-/	(16e\LL	<	4d/	.	.	4b-\	z na-	<
.	.	16d\	.	.	.	.	.	.	.
.	.	16e\	.	.	.	.	.	.	.
.	.	16d\	.	.	.	.	.	.	.
8CC/ 8C	8g/)	16e\	.	8e/	.	.	8g/	-mi	[
.	.	16c\JJ)	[	.	.	.	.	.	.
=18	=18	=18	=18	=18	=18	=18	=18	=18	=18
4.FF/ 4.F	8a/L	(16f\LL	.	8f/	.	.	8a/	i	.
.	.	16c\	.	.	.	.	.	.	.
.	8cc/	16f\	.	8d/	.	.	8cc\	w dal	.
.	.	16d\	.	.	.	.	.	.	.
.	8cc/J	16g\	.	8e/	.	.	8cc\	u-	.
.	.	16e\JJ)	.	.	.	.	.	.	.
!	!	!	!LO:HP:a	!	!	!	!	!	!LO:HP:a
8FF\L	4cc/	(16f\LL	>	(8.f/L	.	.	4cc\	-cie-	>
.	.	16g\	.	.	.	.	.	.	.
8C\ 8F 8A	.	16a\	.	.	.	.	.	.	.
.	.	16g\	.	16g/Jk	.	.	.	.	.
8C\J 8F 8A	8cc/	16f\	.	8a/)	.	.	8cc\	-ka,	]
.	.	16c\JJ)	]	.	.	.	.	.	.
=19	=19	=19	=19	=19	=19	=19	=19	=19	=19
(8GG/L	4b-/	(16e\LL	.	8b-\	.	.	8cc\	a	.
.	.	16c\	.	.	.	.	.	.	.
8C/	.	16e\	.	8b-\	.	.	8.ee^\	ser-	.
.	.	16c\	.	.	.	.	.	.	.
8CC/J)	8b-/	16e\	.	8b-\	.	.	.	.	.
.	.	16c\JJ)	.	.	.	.	16dd\	-ca	.
(8FF\L	(8.a/L	16r	.	8.a/L	.	.	4cc\	na-	.
.	.	(16c\LL	.	.	.	.	.	.	.
8C\	.	16f\	.	.	.	.	.	.	.
.	16g/K	16g\	.	16g/Jk	.	.	.	.	.
8A\J)	8f/J)	16f\	.	8f/	.	.	8cc\	-sze	.
.	.	16c\JJ)	.	.	.	.	.	.	.
=20	=20	=20	=20	=20	=20	=20	=20	=20	=20
!	!LO:N:vis=16	!	!	!	!	!	!	!	!
(8FF/L	8e-X/L	16r	.	8e-X/	.	.	8cc\	peł-	.
.	.	16c\LL	.	.	.	.	.	.	.
8C/	16e-/L	(16c\	.	(16e-/LL	.	.	8.ff^\	-ne	.
.	16f/	16d\	.	16f/JJ)	.	.	.	.	.
8F/J)	16g/	16e-\	.	(16g/LL	.	.	.	.	.
.	16a/JJ	16f\JJ)	.	16a/JJ)	.	.	16ee-X\	zach-	.
!	!	!	!	!	!	!	!	!	!LO:HP:a
(8BB-\L	8b-/L	16r	<	4b-\	.	.	4dd\	-wy-	<
.	.	16f\KL	.	.	.	.	.	.	.
8B-\	(16b-/L	8f\	.	.	.	.	.	.	.
.	16cc/	.	.	.	.	.	.	.	.
8AA\J) 8A	16dd/	8f#X\J	.	8cc\	.	.	8dd\	-tów	[[
.	16cc/JJ)	.	[[	.	.	.	.	.	.
!!LO:LB:g=original
=21	=21	=21	=21	=21	=21	=21	=21	=21	=21
!	!	!	!	!	!	!	!	!	!LO:DY:a
((4GG\ 4G	(8b-/L 8dd	16r	f	8b-\	.	.	8dd\	wy-	f
.	.	16d\LL	.	.	.	.	.	.	.
.	8a/ 8cc	16r	.	8a/	.	.	8cc\	-bie-	.
.	.	16d\	.	.	.	.	.	.	.
8D\)) 8G 8B-	8g/J) 8b-	16r	.	8g/	.	.	8b-\	-gły	.
.	.	16d\JJ	.	.	.	.	.	.	.
((4CC/ 4C	(8a/L 8cc	16r	.	8a/L	.	.	8cc\L	łza-	.
.	.	16c\LL	.	.	.	.	.	.	.
.	8g/ 8b-	16r	.	8g/J	.	.	8b-\J	.	.
.	.	16c\	.	.	.	.	.	.	.
8C\)) 8F 8A	8f/J) 8a	16r	.	8f/	.	.	8a/	-mi	.
.	.	16c\JJ	.	.	.	.	.	.	.
=22	=22	=22	=22	=22	=22	=22	=22	=22	=22
*^	*	*	*	*	*	*	*	*	*
((4CC/ 4C	4.ryy	(8cc/L	16b-\LL	.	8e/	.	.	8cc\	w mo-	.
.	.	.	16e\	.	.	.	.	.	.	.
.	.	8dd/	16b-\	.	8.f/	.	.	8.cc\	-rze	.
.	.	.	16f\	.	.	.	.	.	.	.
8C\)) 8G 8B-	.	8ee/J	16b-\	.	.	.	.	.	.	.
.	.	.	16g\JJ	.	16g/	.	.	16cc\	błę-	.
!	!	!	!	!	!	!	!	!	!	!LO:DY:a
16r	4.FF\	4a/) 4cc 4ff	4.ryy	>	4a/	.	.	4cc\	-ki-	>
(<16C/LL	.	.	.	.	.	.	.	.	.	.
16A/	.	.	.	.	.	.	.	.	.	.
16C/	.	.	.	.	.	.	.	.	.	.
16A/	.	8r	.	.	8a/	.	.	8cc\	-tów.	]
16C/JJ)	.	.	.	]	.	.	.	.	.	.
*	*	*v	*v	*	*	*	*	*	*	*
=23	=23	=23	=23	=23	=23	=23	=23	=23	=23
*	*	*	*	*	*above	*	*	*	*
16r	4.FF\	8b-'\L 8cc 8gg	p	8c/	W świa-	.	2.r	.	.
(<16C/LL	.	.	.	.	.	.	.	.	.
16A/	.	8a'\ 8cc 8ff	.	8c/	-teł	.	.	.	.
16C/	.	.	.	.	.	.	.	.	.
16B-/	.	8g'\J 8cc 8ee	.	8c/	po-	.	.	.	.
16C/JJ)	.	.	.	.	.	.	.	.	.
16r	4.FF\	8a':\ 8cc: 8ff:	.	4f/	-wo-	.	.	.	.
(<16C/LL	.	.	.	.	.	.	.	.	.
16A/	.	8r	.	.	.	.	.	.	.
16C/	.	.	.	.	.	.	.	.	.
16A/	.	8f'>:/ 8a: 8cc:	.	8c/	-dzi	.	.	.	.
16C/JJ)	.	.	.	.	.	.	.	.	.
=24	=24	=24	=24	=24	=24	=24	=24	=24	=24
*	*	*^	*	*	*	*	*	*	*
!	!	!	!	!LO:HP:a	!	!	!	!	!	!LO:HP:a
16r	4.FF\	4cc/	16r	<	2.r	.	.	8cc\	w nie-	<
(<16C/LL	.	.	(16b-\LL	.	.	.	.	.	.	.
16G/	.	.	16g\	.	.	.	.	8cc\	-bo	.
16C/	.	.	16b-\	.	.	.	.	.	.	.
16F/	.	8cc/	16a\	[	.	.	.	8cc\	się	[
16C/JJ)	.	.	16g\JJ)	.	.	.	.	.	.	.
!	!	!	!	!LO:HP:a	!	!	!	!	!	!LO:HP:a
16r	4.FF\	(>(>[4f^>/ 4g#X 4dd	4.ryy	>	.	.	.	4dd^\	wzno-	>
(<16BBn/LL	.	.	.	.	.	.	.	.	.	.
16F/	.	.	.	.	.	.	.	.	.	.
16BB/	.	.	.	.	.	.	.	.	.	.
16F/	.	8f/])) 8a 8cc	.	.	.	.	.	8cc\	-szą,	]
16C/JJ)	.	.	.	]	.	.	.	.	.	.
*	*	*v	*v	*	*	*	*	*	*	*
!!LO:PB:g=original
=25	=25	=25	=25	=25	=25	=25	=25	=25	=25
*	*	*	*	*	*above	*	*	*	*
16r	4.FF\	8B-'>/L 8c 8g	p	8c/	mi-	.	2.r	.	.
(<16C/LL	.	.	.	.	.	.	.	.	.
16F/	.	8A'>/ 8c 8f	.	8c/	-ło-	.	.	.	.
16C/	.	.	.	.	.	.	.	.	.
16G/	.	8B-'>/J 8c 8e	.	8c/	-ścią	.	.	.	.
16C/JJ)	.	.	.	.	.	.	.	.	.
16r	4.FF\	8A'>:/ 8c: 8f:	.	4f/	drżą-	.	.	.	.
(<16C/LL	.	.	.	.	.	.	.	.	.
16F/	.	8r	.	.	.	.	.	.	.
16C/	.	.	.	.	.	.	.	.	.
16F/	.	8A'>/ 8c	.	8c/	-ce,	.	.	.	.
16C/JJ)	.	.	.	.	.	.	.	.	.
=26	=26	=26	=26	=26	=26	=26	=26	=26	=26
!	!	!	!	!	!	!	!	!	!LO:HP:a
16r	4.FF\	(8B-/L 8c	<	2.r	.	.	8cc\	sen-	<
(<16C/LL	.	.	.	.	.	.	.	.	.
16G/	.	16B-/L) 16d	.	.	.	.	8cc\	-ne	.
16C/	.	16c/ 16e	.	.	.	.	.	.	.
16G/	.	16d/ 16f	.	.	.	.	8cc\	roz-	[
16C/JJ)	.	16e/JJ 16g	[	.	.	.	.	.	.
!	!	!	!	!	!	!	!	!	!LO:HP:a
16r	4.FF\	(>(4d^>/ [4f 4g#X	>	.	.	.	4dd^\	-ko-	>
(<16BBn/LL	.	.	.	.	.	.	.	.	.
16F/	.	.	.	.	.	.	.	.	.
16BB/	.	.	.	.	.	.	.	.	.
16F/	.	8c/)) 8f] 8a	.	.	.	.	8cc\	-szą,	]]
16C/JJ)	.	.	]	.	.	.	.	.	.
*v	*v	*	*	*	*	*	*	*	*
=27	=27	=27	=27	=27	=27	=27	=27	=27
*	*^	*	*	*	*	*	*	*
(16DD/LL	4a/	8f\L	.	8f/	.	.	8dd\	w nie-	.
16AA/	.	.	.	.	.	.	.	.	.
16D/	.	8g\	.	8g/	.	.	8ee\	-bo	.
16AA/	.	.	.	.	.	.	.	.	.
16D/	8a/	8f\J	.	8a/	.	.	8ff\	się	.
16AA/JJ)	.	.	.	.	.	.	.	.	.
(16AA/LL	4e/ 4a 4cc	4.ryy	.	4cc\	.	.	4ee\	wzno-	.
16E/	.	.	.	.	.	.	.	.	.
16A/	.	.	.	.	.	.	.	.	.
16E/	.	.	.	.	.	.	.	.	.
16A/	8e/ 8a 8cc	.	.	8cc\	.	.	8ee\	-szą	.
16E/JJ)	.	.	.	.	.	.	.	.	.
*	*v	*v	*	*	*	*	*	*	*
=28	=28	=28	=28	=28	=28	=28	=28	=28
!	!	!	!	!	!LO:HP:b	!	!	!LO:HP:a
(16DD/LL	8f/L 8a 8dd	<	8f/	.	<	8dd\	mi-	<
16AA/	.	.	.	.	.	.	.	.
16D/	8g/ 8a 8ee	.	8g/	.	.	8ee\	-ło-	.
16AA/	.	.	.	.	.	.	.	.
16D/	8a/J 8ff	[	8a/	.	[	8ff\	-ścią	[
16AA/JJ)	.	.	.	.	.	.	.	.
!	!	!	!	!	!LO:DY:b	!	!	!LO:DY:a:rj
(16GGG/LL 16GG	(4.b-\ 4.dd 4.gg	f	[4.b-\	.	f	(4.gg\	drżą-	f
16D/	.	.	.	.	.	.	.	.
16G/	.	.	.	.	.	.	.	.
16B-/	.	.	.	.	.	.	.	.
16d/	.	.	.	.	.	.	.	.
16B-/JJ)	.	.	.	.	.	.	.	.
!!LO:LB:g=original
=29	=29	=29	=29	=29	=29	=29	=29	=29
(16GGG/LL 16GG	4g/ 4b- 4dd	.	4.b-\]	.	.	4dd\	.	.
16D/	.	.	.	.	.	.	.	.
16G/	.	.	.	.	.	.	.	.
16B-/	.	.	.	.	.	.	.	.
16d/	8g/ 8b- 8ee	>	.	.	.	8ee\)	.	.
16B-/JJ)	.	.	.	.	.	.	.	.
!	!	!	!	!	!	!	!	!LO:HP:a
(16CC/LL 16C	4.f/) 4.a 4.ff	.	4a/	.	.	4ff\	-ce,	>
16C/	.	.	.	.	.	.	.	.
16F/	.	.	.	.	.	.	.	.
16A/	.	.	.	.	.	.	.	.
16c/	.	.	8r	.	.	8r	.	]]
16A/JJ)	.	]	.	.	.	.	.	.
=30	=30	=30	=30	=30	=30	=30	=30	=30
*	*^	*	*	*	*	*	*	*
!	!	!	!	!	!	!	!LO:TX:a:i:t=poco rit.	!	!
4F\	(>8c/L 8f 8a	4.ryy	pp	8f/	.	.	8a/	sen-	.
!	!LO:TX:b:i:t=poco rit.	!	!	!	!	!	!	!	!
.	8d/ 8f 8b-	.	.	8d/	.	.	8b-\	-ne	.
8r	8c/J 8f 8a	.	.	8c/	.	.	8a/	roz-	.
(16C/LL	(4.cc/)	(8c\L 8e	.	(8c/L	.	.	4.cc\	-ko-	.
16D/	.	.	.	.	.	.	.	.	.
16C/	.	8d\	.	8d/	.	.	.	.	.
16BB-/	.	.	.	.	.	.	.	.	.
16AA/	.	8e\J	.	8e/J)	.	.	.	.	.
16GG/JJ	.	.	.	.	.	.	.	.	.
*	*v	*v	*	*	*	*	*	*	*
=31	=31	=31	=31	=31	=31	=31	=31	=31
*^	*	*	*	*	*	*	*	*
!	!	!LO:TX:a:i:t=a tempo	!	!	!	!	!LO:TX:a:i:t=a tempo	!	!
16r	2.FF\)	4f/)) 4a	pp	4f/	.	.	4a/	-sza	.
(<16F/LL	.	.	.	.	.	.	.	.	.
16C/	.	.	.	.	.	.	.	.	.
16F/	.	.	.	.	.	.	.	.	.
16A/	.	8r	.	8r	.	.	8r	.	.
16F/JJ)	.	.	.	.	.	.	.	.	.
(<16A/LL	.	4a\ 4dd-X 4ff	.	4r	.	.	4.r	.	.
16F/	.	.	.	.	.	.	.	.	.
16D-X/	.	.	.	.	.	.	.	.	.
16F/	.	.	.	.	.	.	.	.	.
16A/	.	8r	.	8r	.	.	.	.	.
16F/JJ)	.	.	.	.	.	.	.	.	.
=32	=32	=32	=32	=32	=32	=32	=32	=32	=32
16r	2.FF\	4dd-X\ 4ff 4aa	.	2.r	.	.	2.r	.	.
(<16F/LL	.	.	<	.	.	.	.	.	.
16D-X/	.	.	.	.	.	.	.	.	.
16F/	.	.	.	.	.	.	.	.	.
16A/	.	8ff\ 8aa 8ddd-X	.	.	.	.	.	.	.
16F/JJ)	.	.	.	.	.	.	.	.	.
(<16A/LL	.	8aa\L 8ddd- 8fff	.	.	.	.	.	.	.
16F/	.	.	.	.	.	.	.	.	.
16D-X/	.	8aa\ 8ddd- 8fff	.	.	.	.	.	.	.
16F/	.	.	.	.	.	.	.	.	.
16B-/	.	8bb-\J 8ddd- 8ggg	.	.	.	.	.	.	.
16F/JJ)	.	.	[	.	.	.	.	.	.
*v	*v	*	*	*	*	*	*	*	*
!!LO:LB:g=original
=33||	=33||	=33||	=33||	=33||	=33||	=33||	=33||	=33||
*k[]	*k[]	*	*k[]	*	*	*k[]	*	*
*a:	*a:	*	*a:	*	*	*a:	*	*
*^	*	*	*	*	*	*	*	*
16r	2.EE\	4.gg#X\ 4.bbn 4.eee 4.ggg#X	pp	2.r	.	.	2.r	.	.
(<16Bn/LL	.	.	.	.	.	.	.	.	.
16G#X/	.	.	.	.	.	.	.	.	.
16B/	.	.	.	.	.	.	.	.	.
16c#X/	.	.	.	.	.	.	.	.	.
16B/JJ)	.	.	.	.	.	.	.	.	.
(<16e/LL	.	4cc:\ 4ee: 4gg#: 4ccc:	.	.	.	.	.	.	.
16B/	.	.	.	.	.	.	.	.	.
16G#/	.	.	.	.	.	.	.	.	.
16B/	.	.	.	.	.	.	.	.	.
16c#/	.	8bn:\ 8ee: 8gg#: 8bb:	.	.	.	.	.	.	.
16B/JJ)	.	.	.	.	.	.	.	.	.
=34	=34	=34	=34	=34	=34	=34	=34	=34	=34
16r	2.GGn\	4.bn:\ 4.dd: 4.ff: 4.bbn:	.	2.r	.	.	2.r	.	.
(<16Bn/LL	.	.	.	.	.	.	.	.	.
16F/	.	.	.	.	.	.	.	.	.
16G/	.	.	.	.	.	.	.	.	.
16B/	.	.	.	.	.	.	.	.	.
16A/JJ)	.	.	.	.	.	.	.	.	.
(<16d/LL	.	8b:\L 8dd: 8ff: 8aa:	.	.	.	.	.	.	.
16B/	.	.	.	.	.	.	.	.	.
16F/	.	8b\ 8dd 8gg	.	.	.	.	.	.	.
16G/	.	.	.	.	.	.	.	.	.
16B/	.	8g\J 8dd 8ff	.	.	.	.	.	.	.
16A/JJ)	.	.	.	.	.	.	.	.	.
=35	=35	=35	=35	=35	=35	=35	=35	=35	=35
!	!	!	!LO:HP:a	!	!	!	!	!	!
16r	2.GG\	4f/ 4b 4ee	>	2.r	.	.	2.r	.	.
(<16B/LL	.	.	.	.	.	.	.	.	.
16G/	.	.	.	.	.	.	.	.	.
16A/	.	.	.	.	.	.	.	.	.
16B/	.	8f/ 8b 8dd	.	.	.	.	.	.	.
16G/JJ)	.	.	.	.	.	.	.	.	.
(<16d/LL	.	(8f/L 8b	.	.	.	.	.	.	.
16B/	.	.	.	.	.	.	.	.	.
16G/	.	8f/ 8a	.	.	.	.	.	.	.
16A/	.	.	.	.	.	.	.	.	.
16B/	.	8f/J) 8g	]	.	.	.	.	.	.
16G/JJ)	.	.	.	.	.	.	.	.	.
*v	*v	*	*	*	*	*	*	*	*
=36	=36	=36	=36	=36	=36	=36	=36	=36
*	*^	*	*	*	*	*	*	*
!	!	!	!	!	!	!	!	!	!LO:DY:a
(16GG/LL	(8g/L	(16f\LL	p	4r	.	.	8g/	Płyń	p
16D/	.	16d\	.	.	.	.	.	.	.
16G/	8a/	16B\	.	.	.	.	8a/	więc	.
16D/	.	16c\	.	.	.	.	.	.	.
16G/	8b/J	16d\	.	8r	.	.	8b\	o	.
16D/JJ)	.	16e\JJ)	.	.	.	.	.	.	.
!	!	!	!	!	!	!LO:DY:a:rj	!	!	!
(16GG/LL	4.a/)	8f\L	.	8f/	Płyń	p	4a/	ło-	.
16D/	.	.	.	.	.	.	.	.	.
16G/	.	8e\	.	8e/	więc	.	.	.	.
16D/	.	.	.	.	.	.	.	.	.
16G/	.	8d\J	.	8d/	o	.	8a/	-dzi	.
16D/JJ)	.	.	.	.	.	.	.	.	.
!!LO:PB:g=original
=37	=37	=37	=37	=37	=37	=37	=37	=37	=37
(16GG/LL	(8g/L	16r	.	4f/	ło-	.	8g/	choć-	.
16D/	.	16d\LL 16f	.	.	.	.	.	.	.
16G/	8a/	16r	.	.	.	.	8a/	-by	.
16D/	.	16d\ 16f	.	.	.	.	.	.	.
16G/	8b/J)	16r	.	8f/	-dzi,	.	8b/	na	.
16D/JJ)	.	16d\JJ 16f	.	.	.	.	.	.	.
(16CC/LL	4e/ 4cc 4ee	4.ryy	<	4e/	płyń	.	4ee\	wie-	.
16GG#X/	.	.	.	.	.	.	.	.	.
16AA/	.	.	.	.	.	.	.	.	.
16BB/	.	.	.	.	.	.	.	.	.
16C/	8e/ 8cc 8ee	.	.	8r	.	.	8ee\	-ki	.
16D/JJ)	.	.	[	.	.	.	.	.	.
=38	=38	=38	=38	=38	=38	=38	=38	=38	=38
*^	*	*	*	*	*	*	*	*	*
(<16E/LL	2.AA\	(>8e/L 8cc 8ee	4.ryy	.	4r	.	.	8ee\	przez	.
16F/	.	.	.	.	.	.	.	.	.	.
16E/	.	8e/ 8b 8dd	.	.	.	.	.	8dd\	wo-	.
16F/	.	.	.	.	.	.	.	.	.	.
16E/	.	8e/J) 8a 8cc	.	.	8r	.	.	8cc\	-dy	.
16F/JJ	.	.	.	.	.	.	.	.	.	.
16E/LL	.	4cc/	8e\L 8a	.	8a/	przez	.	4cc\	śpią-	.
16F/	.	.	.	.	.	.	.	.	.	.
16G/	.	.	8e\ 8g	.	8g/	wo-	.	.	.	.
16G#X/	.	.	.	.	.	.	.	.	.	.
16A/	.	8cc/	8f\J	.	8f/	-dy	.	8cc\	-ce	.
16G#/JJ)	.	.	.	.	.	.	.	.	.	.
*	*	*v	*v	*	*	*	*	*	*	*
=39	=39	=39	=39	=39	=39	=39	=39	=39	=39
(16A/LL	(8D\L	(8a\L 8ff	.	4a/	śpią-	.	8ff\	w ob-	.
16G#X/	.	.	.	.	.	.	.	.	.
16A/	8E\	8cc\ 8ee	.	.	.	.	8ee\	-szar	.
16G#/	.	.	.	.	.	.	.	.	.
16A/	16F\L	8b\J 8dd	.	8bn\	-ce	.	8dd\	da-	.
[16Gn/JJ	16G\JJ	.	.	.	.	.	.	.	.
16G/LL]	4C\)	4cc\) 4ee	.	4cc\	płyń,	.	4ee\	-le-	.
16A/	.	.	.	.	.	.	.	.	.
16B/	.	.	.	.	.	.	.	.	.
16c/	.	.	.	.	.	.	.	.	.
16d/	8r	8r	.	8r	.	.	8ee\	-ki,	.
16e/JJ)	.	.	.	.	.	.	.	.	.
*v	*v	*	*	*	*	*	*	*	*
=40	=40	=40	=40	=40	=40	=40	=40	=40
(16f\LL	8a/L 8dd	.	2.r	.	.	8dd\	aż	.
16e\	.	.	.	.	.	.	.	.
16d\	8f/ 8a 8dd	.	.	.	.	8dd\	gdzieś	.
16c\	.	.	.	.	.	.	.	.
16B\	8f/J 8a 8dd	.	.	.	.	8dd\	w prze-	.
16d\JJ	.	.	.	.	.	.	.	.
16A\LL	8.e/L 8.a 8.cc	.	.	.	.	8.cc\L	-strze-	.
16G#X\	.	.	.	.	.	.	.	.
16A\	.	.	.	.	.	.	.	.
16G#\	16b/K 16dd	.	.	.	.	16dd\Jk	.	.
16A\	8cc/J 8ee	.	.	.	.	8ee\	-ni	.
16Gn\JJ)	.	.	.	.	.	.	.	.
!!LO:LB:g=original
=41	=41	=41	=41	=41	=41	=41	=41	=41
(16F\LL	8f/L 8a 8dd	.	2.r	.	.	8dd\	zgi-	.
16E\	.	.	.	.	.	.	.	.
16D\	8f/ 8a 8dd	.	.	.	.	8dd\	-nie	.
16E\	.	.	.	.	.	.	.	.
16F\	8f/J 8a 8dd	.	.	.	.	8dd\	w od-	.
16G\JJ	.	.	.	.	.	.	.	.
16A\LL	8.e/L 8.a 8.cc	.	.	.	.	8.cc\L	-da-	.
16G#X\	.	.	.	.	.	.	.	.
16A\	.	.	.	.	.	.	.	.
16G#\	16d/K 16e 16b	.	.	.	.	16bn\Jk	.	.
16A\	8c/J 8e 8a	.	.	.	.	8a/	-li	.
16Gn\JJ)	.	.	.	.	.	.	.	.
=42	=42	=42	=42	=42	=42	=42	=42	=42
!	!	!	!	!	!LO:HP:a	!	!	!
(16F\LL	8c/L 8a	.	2.a/	płyń	<	8a/	w pół-	.
16E\	.	<	.	.	.	.	.	.
!	!	!	!	!	!	!	!	!LO:HP:a
16F\	8d/ 8a 8b	.	.	.	.	8b\	-cie-	<
16E\	.	.	.	.	.	.	.	.
16D\	8f/J 8a 8cc	.	.	.	.	8cc\	-niach	.
16C\JJ	.	.	.	.	.	.	.	.
16BB\LL	4f/ 4a 4dd	.	.	.	.	4dd\	jas-	.
16C\	.	.	.	.	.	.	.	.
16D\	.	.	.	.	.	.	.	.
16E\	.	.	.	.	.	.	.	.
!	!LO:N:vis=4	!	!	!	!	!	!	!
16F\	8f/ 8a 8dd	[	.	.	[	8dd\	-nych	[
16G\JJ)	.	.	.	.	.	.	.	.
=43	=43	=43	=43	=43	=43	=43	=43	=43
(16F\LL	8f/L 8a-X 8dd	.	4a-X/	płyń	.	8dd\	na	.
16E\	.	.	.	.	.	.	.	.
16F\	8f/ 8a- 8cc	.	.	.	.	8cc\	srebr-	.
16E\	.	.	.	.	.	.	.	.
16F\	8f/J 8a- 8dd	.	8a-/	na	.	8dd\	-nej	.
16FF\JJ)	.	.	.	.	.	.	.	.
!	!LO:TX:b:i:t=poco rit.	!	!	!	!	!LO:TX:a:i:t=poco rit.	!	!
(16C/LL	((4.e/ 4.g 4.ee	.	(4.g/	fa-	.	(4.ee\	fa-	.
16D/	.	.	.	.	.	.	.	.
16C/	.	.	.	.	.	.	.	.
16BBn/	.	.	.	.	.	.	.	.
16C/	.	.	.	.	.	.	.	.
16BB/JJ)	.	.	.	.	.	.	.	.
=44	=44	=44	=44	=44	=44	=44	=44	=44
!	!	!	!	!	!	!	!	!LO:HP:a
(16C/LL	4.f/ 4.a-X 4.dd	.	4.f/)	.	.	4.dd\)	.	>
16D/	.	.	.	.	.	.	.	.
16C/	.	.	.	.	.	.	.	.
16BBn/	.	>	.	.	.	.	.	.
16C/	.	.	.	.	.	.	.	.
16BB/JJ	.	.	.	.	.	.	.	.
16C/LL	4.e/)) 4.g 4.b-X 4.cc	.	4e/	-li.	.	4cc\	-li.	]
16D/	.	.	.	.	.	.	.	.
16C/	.	.	.	.	.	.	.	.
16BB-X/	.	.	.	.	.	.	.	.
16AA/	.	.	8r	.	.	8r	.	.
16GG/JJ)	.	]	.	.	.	.	.	.
!!LO:LB:g=original
=45||	=45||	=45||	=45||	=45||	=45||	=45||	=45||	=45||
*k[b-]	*k[b-]	*	*k[b-]	*	*	*k[b-]	*	*
*F:	*F:	*	*F:	*	*	*F:	*	*
*	*^	*	*	*	*	*	*	*
!	!LO:TX:a:i:t=a tempo	!	!	!	!	!	!LO:TX:a:i:t=a tempo	!	!
2.FF/	(16f/LL 16a	4.ryy	] p	8f/	.	.	8a/	A	.
.	16c/	.	.	.	.	.	.	.	.
.	16e/ 16b-X	.	.	8g/	.	.	8b-\	roz-	.
.	16c/	.	.	.	.	.	.	.	.
.	16e/ 16b-	.	.	8b-/	.	.	8dd\	-to-	.
.	16c/JJ)	.	.	.	.	.	.	.	.
!	!	!	!	!	!	!	!LO:N:vis=8	!	!
.	4a/	16r	.	4a/	.	.	4cc\	-pie-	.
.	.	(16f\LL	.	.	.	.	.	.	.
.	.	16c\	.	.	.	.	.	.	.
.	.	16f\	.	.	.	.	.	.	.
.	8a/	16a\	.	8a/	.	.	8cc\	-ni	.
.	.	16f\JJ)	.	.	.	.	.	.	.
=46	=46	=46	=46	=46	=46	=46	=46	=46	=46
4.FF:/ 4.C: 4.G:	(16e/LL 16g	4.ryy	.	8e/	.	.	8g/	w ci-	.
.	16c/	.	.	.	.	.	.	.	.
.	16e/ 16g	.	.	8e/	.	.	8g/	-chym	.
.	16c/	.	.	.	.	.	.	.	.
.	16e/ 16g	.	.	8g/	.	.	8b-/	błę-	.
.	16c/JJ)	.	.	.	.	.	.	.	.
4.FF:\ 4.C: 4.A:	4a/	16r	.	4f/	.	.	4a/	-ki-	.
.	.	(16f\LL	.	.	.	.	.	.	.
.	.	16c\	.	.	.	.	.	.	.
.	.	16f\	.	.	.	.	.	.	.
.	8a/	16a\	.	8f/	.	.	8a/	-cie	.
.	.	16f\JJ)	.	.	.	.	.	.	.
=47	=47	=47	=47	=47	=47	=47	=47	=47	=47
(8FF/L	(8ff/L 8aa	16r	pp	2.r	.	.	2.r	.	.
.	.	16cc\LL	.	.	.	.	.	.	.
8C/	8gg/ 8bb-	16r	.	.	.	.	.	.	.
.	.	16cc\	.	.	.	.	.	.	.
8F/J)	8bb-/J) 8ddd	16r	.	.	.	.	.	.	.
.	.	16cc\JJ	.	.	.	.	.	.	.
(8FF/L	4aa/ 4ccc	16r	.	.	.	.	.	.	.
.	.	16ff\LL	.	.	.	.	.	.	.
8C/	.	16cc\	.	.	.	.	.	.	.
.	.	16ff\	.	.	.	.	.	.	.
8F/J)	8r	16aa\	.	.	.	.	.	.	.
.	.	16ff\JJ	.	.	.	.	.	.	.
=48	=48	=48	=48	=48	=48	=48	=48	=48	=48
(8FF/L	(8ee/L 8gg	16r	.	2.r	.	.	2.r	.	.
.	.	16cc\LL	.	.	.	.	.	.	.
8C/	8ee/ 8gg	16r	.	.	.	.	.	.	.
.	.	16cc\	.	.	.	.	.	.	.
8E/J)	8gg/J 8bb-	16r	.	.	.	.	.	.	.
.	.	16cc\JJ	.	.	.	.	.	.	.
(8FF/L	4ff/) 4aa	16r	.	.	.	.	.	.	.
.	.	(16cc\LL	.	.	.	.	.	.	.
8C/	.	16a\	.	.	.	.	.	.	.
.	.	16cc\	.	.	.	.	.	.	.
8E/J)	8r	16ff\	.	.	.	.	.	.	.
.	.	16cc\JJ)	.	.	.	.	.	.	.
*	*v	*v	*	*	*	*	*	*	*
!!LO:PB:g=original
=49	=49	=49	=49	=49	=49	=49	=49	=49
4.C:\ 4.B-: 4.e:	(16ee\LL 16gg	.	8e/	.	.	8cc\	tyl-	.
.	16ff\	.	.	.	.	.	.	.
.	16ee\	.	8g/	.	.	8.ee^\	-ko	.
.	16dd\	.	.	.	.	.	.	.
.	16cc\	.	8b-\	.	.	.	.	.
.	16b-\JJ	.	.	.	.	16dd\	serc	.
(8FF/L	16a/LL	.	4a/	.	.	4cc\	wła-	.
.	16g/	.	.	.	.	.	.	.
8C/	16f/	.	.	.	.	.	.	.
.	16e/	.	.	.	.	.	.	.
8F/J)	16d/	.	8a/	.	.	8cc\	-snych	.
.	16c/JJ)	.	.	.	.	.	.	.
=50	=50	=50	=50	=50	=50	=50	=50	=50
*	*^	*	*	*	*	*	*	*
8FF/L	8a/L	(16f\LL	.	8f/	.	.	8a/	u-	.
.	.	16e\	.	.	.	.	.	.	.
8AA/	8cc/	16f\	.	(16f/LL	.	.	8.cc\	-sły-	.
.	.	16e\	.	16e/JJ)	.	.	.	.	.
8BB-/J	8b-/J	16f\	.	8d/	.	.	.	.	.
.	.	16d\JJ)	.	.	.	.	16b-\	-szym	.
!	!	!	!	!	!	!LO:HP:b	!	!	!LO:HP:a
4.CC/ 4.C	4a/	16r	.	4c/	.	>	4a/	bi-	>
.	.	16f\LL	.	.	.	.	.	.	.
.	.	16c\	.	.	.	.	.	.	.
.	.	16f\	.	.	.	.	.	.	.
.	8r	16a\	.	8c/	.	]	8a/	-cie	]
.	.	16f\JJ	.	.	.	.	.	.	.
=51	=51	=51	=51	=51	=51	=51	=51	=51	=51
(4DD/ 4D	(8f/L	4A\	<	4r	.	.	4r	.	.
.	8a/	.	.	.	.	.	.	.	.
8DD-X/ 8D-X	8g/J	8B-\ 8f	.	8r	.	.	8r	.	.
8CC/ 8C	8c/ 8f 8a	4.ryy	[	4r	.	.	4r	.	.
[4BBB-^/) [4BB-	[4d-X^>/) [>4f [>4g [>4b-	.	sf	.	.	.	.	.	.
.	.	.	.	8f/	.	.	8b-\	więc	.
*	*v	*v	*	*	*	*	*	*	*
=52	=52	=52	=52	=52	=52	=52	=52	=52
2.BBB-/_ 2.BB-_	2.d-/_ 2.f_ 2.g_ 2.b-_	.	4f/	.	.	4dd-X\	płyń,	.
!	!	!	!	!	!	!	!	!LO:HP:a
.	.	.	8d-X/	.	.	8b-\	ach	>
.	.	>	4f/	.	.	4dd-\	płyń,	.
.	.	.	8d-/	.	.	8b-\	ach	.
!!LO:LB:g=original
=53	=53	=53	=53	=53	=53	=53	=53	=53
!	!	!	!	!	!LO:HP:b	!	!	!
4.BBB-/_ 4.BB-_	4.d-/_ 4.f_ 4.g_ 4.b-_	.	[4.f/	.	>	[4.dd-X\	płyń	.
8BBB-;/] 8BB-]	8d-;/] 8f] 8g] 8b-]	.	8f;/]	.	]	8dd-;\]	.	]
8r	8r	]	8r	.	.	8r	.	.
8r	8cc\	.	8r	.	.	8r	.	.
=54	=54	=54	=54	=54	=54	=54	=54	=54
*	*^	*	*	*	*	*	*	*
4.C^<;\ 4.F 4.G#X 4.Bn	(4ee^;/	4f\ 4g#X	f	4r;	.	.	4r;	.	.
.	8dd\)	8ryy	>	8r	.	.	8r	.	.
[4.C\ [4.F [4.A [4.c	[4.f/ [4.a [4.cc	4.ryy	.	4r	.	.	4r	.	.
.	.	.	.	8f/	.	.	8a/	więc	.
*	*v	*v	*	*	*	*	*	*	*
=55	=55	=55	=55	=55	=55	=55	=55	=55
2.C\_ 2.F_ 2.A_ 2.c_	2.f/_ 2.a_> 2.cc_>	]	4f/	.	.	4cc\	płyń,	.
.	.	.	8c/	.	.	8a/	ach	.
.	.	.	4f/	.	.	4cc\	płyń,	.
!	!	!	!	!	!LO:HP:b	!	!	!LO:HP:a
.	.	.	8c/	.	>	8a/	ach	>
=56	=56	=56	=56	=56	=56	=56	=56	=56
4.C\_ 4.F_ 4.A_ 4.c_	4.f/_ 4.a_> 4.cc_>	.	[4.f/	.	.	[4.cc\	płyń!	.
8C;\] 8F] 8A] 8c]	8f;/] 8a] 8cc]	.	8f;/]	.	]	8cc;\]	.	]
8r	8r	.	8r	.	.	8r	.	.
8r	8r	.	8r	.	.	8r	.	.
=57	=57	=57	=57	=57	=57	=57	=57	=57
2.CC/ 2.C	2.c/ 2.e 2.b-	.	2.e/	.	.	2.cc\	płyń	.
!!LO:LB:g=original
=58	=58	=58	=58	=58	=58	=58	=58	=58
*^	*^	*	*	*	*	*	*	*
!	!	!	!	!	!	!	!LO:DY:b:rj	!	!	!LO:DY:a:rj
4.C/ 4.F	2.FF\	4a/	16r	f	[>2.f/	.	f	[2.ff\	w dal!	f
.	.	.	(16f\LL	.	.	.	.	.	.	.
.	.	.	16c\	.	.	.	.	.	.	.
.	.	.	16f\	.	.	.	.	.	.	.
.	.	8r	16a\	.	.	.	.	.	.	.
.	.	.	16f\JJ)	.	.	.	.	.	.	.
4.D-X^/ 4.F	.	4a-X^/	16r	.	.	.	.	.	.	.
.	.	.	(16f\LL	.	.	.	.	.	.	.
.	.	.	16d-X\	.	.	.	.	.	.	.
.	.	.	16f\	.	.	.	.	.	.	.
.	.	8r	16a-\	.	.	.	.	.	.	.
.	.	.	16f\JJ)	.	.	.	.	.	.	.
=59	=59	=59	=59	=59	=59	=59	=59	=59	=59	=59
4.C/ 4.F	2.FF\	4an/	16r	.	2.f/_>	.	.	2.ff\_	.	.
.	.	.	(16f\LL	.	.	.	.	.	.	.
.	.	.	16c\	.	.	.	.	.	.	.
.	.	.	16f\	.	.	.	.	.	.	.
.	.	8r	16a\	.	.	.	.	.	.	.
!	!	!	!	!	!	!	!LO:HP:b	!	!	!
.	.	.	16f\JJ)	.	.	.	>	.	.	>
4.D-X^/ 4.F	.	4a-X^/	16r	.	.	.	.	.	.	.
.	.	.	(16f\LL	>	.	.	.	.	.	.
.	.	.	16d-X\	.	.	.	.	.	.	.
.	.	.	16f\	.	.	.	.	.	.	.
.	.	8r	16a-\	.	.	.	.	.	.	.
.	.	.	16f\JJ)	]	.	.	.	.	.	.
*v	*v	*	*	*	*	*	*	*	*	*
*	*v	*v	*	*	*	*	*	*	*
=60	=60	=60	=60	=60	=60	=60	=60	=60
8FF/L 8C 8F	8c/L 8f 8an	p	4f/]	.	]	4ff\]	.	]
8FF/ 8C 8F	8f/ 8a 8cc	.	.	.	.	.	.	.
8FF/J 8C 8F	8a/J 8cc 8ff	.	8r	.	.	8r	.	.
4FF:\ 4C: 4A:	4a:\ 4cc: 4ff: 4aa:	.	4r	.	.	4r	.	.
8r	8r	.	8r	.	.	8r	.	.
=61	=61	=61	=61	=61	=61	=61	=61	=61
4FF:\ 4C: 4A:	4cc:\ 4ff: 4aa: 4ccc:	.	2.r	.	.	2.r	.	.
8r	8r	.	.	.	.	.	.	.
4FF:\ 4C: 4A:	4ff:\ 4aa: 4ccc: 4fff:	.	.	.	.	.	.	.
8r	8r	.	.	.	.	.	.	.
=62	=62	=62	=62	=62	=62	=62	=62	=62
2.FFF;</ 2.FF	2.A;/ 2.c 2.f	pp	2.r;	.	.	2.r;	.	.
==	==	==	==	==	==	==	==	==
*-	*-	*-	*-	*-	*-	*-	*-	*-
!!!system-decoration: (s1,s2){(s3,s4)}
!!!RDF**kern: < = below
!!!RDF**kern: > = above
!!!ENC: Anastazja Marusiak
!!!END: 2023-10-04
!!!YEM: Copyright © 2023 by [Copyright Holder]
!!!EED: Marta Chmielewska
!!!EEV: 2023-10-17
